Obsidian-SemiLight/actions/24s/media-repeat-album-amarok.svg

<svg viewBox="0 0 24 24" xmlns="http://www.w3.org/2000/svg"><path d="m3 4v16h1 6v-1h-1c0-.552285-.4477153-1-1-1s-1 .447715-1 1h-1v-7-7h1c0 .5522847.4477153 1 1 1s1-.4477153 1-1h4 4c0 .5522847.447715 1 1 1s1-.4477153 1-1h1v7 1h1v-9h-17zm17 8c0-3.8659932-3.134007-7-7-7-3.8659932 0-7 3.1340068-7 7 .00315 2.700827 1.5597788 5.15891 4 6.316406v-1.126953c-1.8543352-1.070599-2.9976084-3.048253-3-5.189453 0-3.3137085 2.6862915-6 6-6 3.313708 0 6 2.6862915 6 6-.002.335258-.032014.669762-.089844 1h1.011719c.049913-.331036.07603-.665227.078125-1zm-16-7h1v14h-1zm9 8-2 1.5 2 1.5v-1h5c.554 0 1 .446 1 1h1c0-1.108008-.891992-2-2-2h-5zm-2 4c0 1.10801.89199 2 2 2h5v1l2-1.5-2-1.5v1h-5c-.554 0-1-.446-1-1z" fill="#4d4d4d"/></svg>

<svg xmlns="http://www.w3.org/2000/svg" viewBox="0 0 24 24">
  <defs id="defs3051">
    <style type="text/css" id="current-color-scheme">
      .ColorScheme-Text {
        color:#4d4d4d;
      }
      </style>
  </defs>
 <path style="fill:currentColor;fill-opacity:1;stroke:none" 
     d="M 3 4 L 3 20 L 4 20 L 10 20 L 10 19 L 9 19 C 9 18.447715 8.5522847 18 8 18 C 7.4477153 18 7 18.447715 7 19 L 6 19 L 6 12 L 6 5 L 7 5 C 7 5.5522847 7.4477153 6 8 6 C 8.5522847 6 9 5.5522847 9 5 L 13 5 L 17 5 C 17 5.5522847 17.447715 6 18 6 C 18.552285 6 19 5.5522847 19 5 L 20 5 L 20 12 L 20 13 L 21 13 L 21 4 L 4 4 L 3 4 z M 20 12 C 20 8.1340068 16.865993 5 13 5 C 9.1340068 5 6 8.1340068 6 12 C 6.00315 14.700827 7.5597788 17.15891 10 18.316406 L 10 17.189453 C 8.1456648 16.118854 7.0023916 14.1412 7 12 C 7 8.6862915 9.6862915 6 13 6 C 16.313708 6 19 8.6862915 19 12 C 18.998 12.335258 18.967986 12.669762 18.910156 13 L 19.921875 13 C 19.971788 12.668964 19.997905 12.334773 20 12 z M 4 5 L 5 5 L 5 19 L 4 19 L 4 5 z M 13 13 L 11 14.5 L 13 16 L 13 15 L 18 15 C 18.554 15 19 15.446 19 16 L 20 16 C 20 14.891992 19.108008 14 18 14 L 13 14 L 13 13 z M 11 17 C 11 18.10801 11.89199 19 13 19 L 18 19 L 18 20 L 20 18.5 L 18 17 L 18 18 L 13 18 C 12.446 18 12 17.554 12 17 L 11 17 z "
     class="ColorScheme-Text"
     />
</svg>
